X:296
T:Blaze Away 1
C:Joe Buchanan's Scottish Tome - Page 456.0
I:456 0
Z:Carl Allison
C:Abe Holzman
R:Jig
L:1/8
M:6/8
K:C
g^fa g3 | G^FA G3 | G2 ^G A2 ^A | B2 z g3 |
%%vskip 25
g^fa ged | cBd cBA | B2 ^A B2 A | B3- B2 z|
a^gb afe | d^ce dBG | c2 B c2 B | c2 z g3 |
g^fa ged | cBd cBA | B2 ^A B2 A | B3- B2 d/d/ |
d2 ^d e2 _e | d2 ^d e2 _e | d2 c' b2 a | g2 z g3 :|
%%vskip 25
[M:6/8] GGG | E3 F3 | G3 d3 | c3- c2 _B | A2 A G2 _G |
F3 G3 | ^A3 e3 | d3- d2 c | B6 |
cde cde | c3 c2 c | _Bcd Bcd | _B2 B B2 A/^G/ |
A3- A2 A/^G/ |  A3 A2 z |  G^FG AGF | G3 z :|

